files/site/site-logo.svg

<svg width="50" height="50" viewBox="0 0 50 50" fill="none" xmlns="http://www.w3.org/2000/svg">
<path d="M25 0L26.2464 15.5325L31.4705 0.851854L28.6543 16.1777L37.5 3.34937L30.8132 17.4241L42.6777 7.32233L32.5759 19.1868L46.6506 12.5L33.8223 21.3457L49.1481 18.5295L34.4675 23.7536L50 25L34.4675 26.2464L49.1481 31.4705L33.8223 28.6543L46.6506 37.5L32.5759 30.8132L42.6777 42.6777L30.8132 32.5759L37.5 46.6506L28.6543 33.8223L31.4705 49.1481L26.2464 34.4675L25 50L23.7536 34.4675L18.5295 49.1481L21.3457 33.8223L12.5 46.6506L19.1868 32.5759L7.32233 42.6777L17.4241 30.8132L3.34937 37.5L16.1777 28.6543L0.851854 31.4705L15.5325 26.2464L0 25L15.5325 23.7536L0.851854 18.5295L16.1777 21.3457L3.34937 12.5L17.4241 19.1868L7.32233 7.32233L19.1868 17.4241L12.5 3.34937L21.3457 16.1777L18.5295 0.851854L23.7536 15.5325L25 0Z" fill="#FFD700"/>
<path d="M30.7 19V32H28.5432L22.2359 23.145H22.1248V32H19.7V19H21.8699L28.1706 27.8613H28.2882V19H30.7Z" fill="white"/>
</svg>

<svg xmlns="http://www.w3.org/2000/svg" viewBox="0 0 50 50">
  <path
    fill="gold"
    class="star"
    d="m25 0 1.246 15.533L31.471.852l-2.817 15.326L37.5 3.349l-6.687 14.075L42.678 7.322 32.576 19.187 46.65 12.5l-12.829 8.846 15.326-2.817-14.68 5.225L50 25l-15.532 1.246 14.68 5.225-15.326-2.817L46.651 37.5l-14.075-6.687 10.102 11.865-11.865-10.102L37.5 46.65l-8.846-12.829 2.817 15.326-5.225-14.68L25 50l-1.246-15.532-5.225 14.68 2.817-15.326L12.5 46.651l6.687-14.075L7.322 42.678l10.102-11.865L3.35 37.5l12.829-8.846L.852 31.471l14.68-5.225L0 25l15.533-1.246L.852 18.529l15.326 2.817L3.349 12.5l14.075 6.687L7.322 7.322l11.865 10.102L12.5 3.35l8.846 12.829L18.529.852l5.225 14.68z"
  />
	<path
    fill="#fff"
    class="text-on-star"
    d="M32 18v15h-2.549l-7.454-10.217h-.131V33H19V18h2.564l7.447 10.225h.139V18z"
  />
</svg>
